X: 24061
T: Lonesome Boatman, The
R: reel
M: 4/4
K: Dmajor
|:{e}f4 e4 ^e4 f8 z2|(f4 g4 {^e}f8) z2|
{ef}e2 {ef}e2 {ef}e2 {ef}e2 {ef}e2|{ef}e2 {ef}e2 {ef}e2 {ef}e2 {ef}e2|
{ef}e2 {ef}e2 {e}e2 {f}A2|B8 (3Bce (3ddd d8 c6 {dc}B2|
z2 (3cBA F8 {e}f8 e2 f4 g4 Tf4|z2 {ef}e2 {ef}e2 {ef}e2 {ef}e2|
{ef}e2 {ef}e2 {ef}e2 {ef}e2 {ef}e2|{ef}e2 {ef}e2 {e}e4 {f}A2 B8 z2|
(3Bce (3ddd d8 c6 {dc}B2|(3cBA F8 A4 B8|
fe|f4-fgfe|fB4ABc|d4-ddcB|AF3-F4-|-F4-F2
fe|f4-fgfe|fB3-BABc|d4-ded/c/B|c4 dcA(B|B)8-|-B6:|
|:f2|^g8-|-^g6e2|f8-|-f6f2|^g8-|-^g6e2|f8-|-f4-fff/e/d/c/|
d6 e/d/c/B/|c4-cBBA|F8-|-F6fe|f4-fgfe|fB4ABc|
d4-ded/c/B|c4 dc A2|B8-|-B6|
B4 {c}BA {FA}Bc d4 z2 B2|{c}BA {FA}Bc {d}cB d/c/B|
e/d/c d/c/B e/d/c d/c/B|{c}BA {G}FE {G}F2 de|
f/e/d {e}dc {d}cB {c}BA|B/c/d z c2 {d}cB {c}BA|
Bc d/c/B e/d/c d/c/B|{f}e/d/c {d}c/B/A {c}BA {G}FE|
Fz de f/e/d {e}dc|cB {c}BA B/c/d dc|
B2 {c}BA B/c/d dc|B8 B8||

